source/img/cat-back-pro-desktop.svg

<svg width="134" height="100" viewBox="0 0 134 100" fill="none" xmlns="http://www.w3.org/2000/svg">
<circle cx="69" cy="50" r="50" fill="#68B738"/>
<g clip-path="url(#clip0)">
<path d="M123.1 25.8C124.254 23.9631 125.789 22.3946 127.6 21.2C128.6 20.5 129.2 20.5 129.8 21.8C130.6 23.7 131.3 25.7 130.7 27.8C130.591 28.1562 130.57 28.5336 130.64 28.8995C130.71 29.2655 130.867 29.6089 131.1 29.9C131.7 30.7 132.2 31.5 132.7 32.2C133.38 33.0638 133.822 34.0913 133.98 35.1795C134.138 36.2678 134.007 37.3784 133.6 38.4C133.233 39.3918 133.163 40.4692 133.4 41.5C133.6 42.49 133.6 43.51 133.4 44.5C133.319 45.2414 133.019 45.9419 132.538 46.5119C132.057 47.0819 131.417 47.4956 130.7 47.7C129.421 47.9434 128.279 48.6569 127.5 49.7C127.405 49.8536 127.273 49.9803 127.115 50.0679C126.958 50.1555 126.78 50.201 126.6 50.2C125.4 50.4 122.4 47.7 122.4 46.5V45.9C122.5 42.3 122.3 42 119 40.5C118.309 40.2564 117.69 39.8439 117.2 39.3C116.6 38.5 115.8 38.6 114.9 38.9C114 39.2 113.5 39.8 113.6 40.8C113.901 43.2209 114.002 45.6626 113.9 48.1C113.907 48.3782 113.975 48.6514 114.1 48.9C117.2 53.4 118.4 58.7 119.9 63.8C121.1 67.7 123.3 69.8 127.3 70.1C127.94 70.1511 128.575 70.2514 129.2 70.4C130.022 70.532 130.785 70.9076 131.391 71.478C131.997 72.0485 132.418 72.7877 132.6 73.6C133.3 75.7 132.9 76.2 130.8 76.2H124.3C123.458 76.2426 122.633 75.9556 122 75.4C120.988 74.5459 119.838 73.8696 118.6 73.4C117.231 72.8947 116.046 71.9887 115.2 70.8C114.029 69.1635 112.688 67.6551 111.2 66.3C108.4 63.4 105.4 60.6 102.8 57.6C100.821 55.5558 99.6789 52.8443 99.5999 50C99.5999 49.1 99.3999 48.7 98.3999 49.1C98.1005 49.29 97.7545 49.3938 97.3999 49.4C94.5999 49.4 93.1999 51.1 92.1999 53.6C91.2999 55.7 90.0999 57.7 88.9999 59.8C88.3762 61.1145 88.0355 62.5454 87.9999 64C87.9999 66.4 88.5999 67.2 90.7999 68C92.1999 68.5 93.4999 69 94.1999 70.4C94.9999 72 94.7999 72.4 93.0999 72.5H86.2999C85.9079 72.5388 85.5136 72.4535 85.1727 72.2562C84.8317 72.0588 84.5614 71.7593 84.3999 71.4L82.5999 68.4C82.0693 67.6172 81.7296 66.721 81.6081 65.7832C81.4865 64.8454 81.5865 63.8922 81.8999 63C82.3327 61.2635 82.3669 59.4516 81.9999 57.7C81.7478 56.4801 81.7696 55.2195 82.0635 54.009C82.3575 52.7986 82.9164 51.6684 83.6999 50.7C84.2999 50 84.2999 49.7 83.2999 49.5C79.2108 48.6314 75.2466 47.254 71.4999 45.4C71.4734 45.4 71.448 45.3895 71.4292 45.3707C71.4105 45.352 71.3999 45.3265 71.3999 45.3C68.1999 44.1 67.5999 44.3 66.6999 47.6C65.8999 50.4 65.0999 53.2 64.4999 56.1C63.7999 59.3 64.5999 62.3 65.5999 65.3C65.9999 66.5 67.1999 66.4 68.0999 66.7C70.0999 67.3 71.7999 68.1 72.5999 70.2C73.2999 71.8 73.1999 72 71.4999 72C69.7999 72 68.0999 71.9 66.2999 72C64.781 72.0275 63.2985 71.5334 62.0999 70.6C57.2999 67.4 55.8999 62.5 55.4999 57.2C55.2999 53.9 53.4999 51.3 51.3999 48.8C50.9999 48.3 50.5999 48.1 49.9999 48.5C47.8534 49.6836 45.6124 50.687 43.2999 51.5C38.4742 53.204 34.2395 56.2585 31.0999 60.3C29.9276 61.775 29.1683 63.5351 28.8999 65.4C28.5999 67.2 29.0999 68 30.8999 68.5C32.6999 69 33.5999 70 33.7999 71.9C33.8999 72.7 33.5999 73.1 32.7999 73.1H24.6999C24.4348 73.0812 24.1782 72.9987 23.9518 72.8594C23.7255 72.7201 23.5362 72.5282 23.3999 72.3C22.1438 70.7448 21.4716 68.799 21.4999 66.8C21.4474 63.3449 21.749 59.8936 22.3999 56.5C22.5334 55.4837 22.9128 54.5153 23.5053 53.6788C24.0978 52.8424 24.8855 52.1631 25.7999 51.7C31.6999 48.9 34.7999 43.6 37.5999 38.1C38.1999 37 37.6999 36.8 36.6999 36.9C33.9013 37.2885 31.2496 38.3905 28.9999 40.1C26.0541 42.2488 23.2791 44.6226 20.6999 47.2C17.9496 49.9937 14.3026 51.7286 10.3999 52.1C3.09992 52.5 -0.300081 48.4 -8.06041e-05 41.8C0.0669819 39.5496 0.915567 37.3928 2.39992 35.7C2.91594 35.031 3.61965 34.531 4.42119 34.2638C5.22272 33.9966 6.0857 33.9744 6.89992 34.2C8.39992 34.6 8.79992 35.4 8.19992 36.9C7.89992 37.5 7.49992 38 7.19992 38.6C6.76852 39.213 6.43144 39.8871 6.19992 40.6C5.09992 43.6 6.59992 45.7 9.69992 46C12.9999 46.3 15.6999 44.9 18.1999 42.9C21.2118 40.4882 23.9006 37.6986 26.1999 34.6C27.9192 32.3374 30.084 30.4513 32.5607 29.0581C35.0375 27.665 37.7735 26.7943 40.5999 26.5C42.8999 26.2 44.8999 25.2 47.0999 24.6C51.2144 23.3456 55.4989 22.7384 59.7999 22.8C61.792 22.883 63.7765 22.5066 65.5999 21.7C70.4999 19.7 75.5999 19.7 80.6999 20.7C84.6999 21.5 88.6999 22.5 92.5999 23.5C94.9209 23.9325 97.3074 23.8643 99.5999 23.3C103.989 22.1875 108.478 21.5175 113 21.3C115.962 21.1559 118.915 21.7395 121.6 23C123.6 23.9 123.6 23.9 123.1 25.8Z" fill="black"/>
</g>
<defs>
<clipPath id="clip0">
<rect width="134" height="56" fill="white" transform="translate(0 20)"/>
</clipPath>
</defs>
</svg>

<svg width="134" height="100" fill="none" xmlns="http://www.w3.org/2000/svg"><circle cx="69" cy="50" r="50" fill="#68B738"/><g clip-path="url(#clip0)"><path d="M123.1 25.8a15.2 15.2 0 014.5-4.6c1-.7 1.6-.7 2.2.6.8 1.9 1.5 3.9.9 6a2.29 2.29 0 00.4 2.1c.6.8 1.1 1.6 1.6 2.3a6.28 6.28 0 01.9 6.2c-.37 1-.44 2.07-.2 3.1.2.99.2 2.01 0 3a3.75 3.75 0 01-2.7 3.2 5.21 5.21 0 00-3.2 2 1.05 1.05 0 01-.9.5c-1.2.2-4.2-2.5-4.2-3.7v-.6c.1-3.6-.1-3.9-3.4-5.4a4.38 4.38 0 01-1.8-1.2c-.6-.8-1.4-.7-2.3-.4-.9.3-1.4.9-1.3 1.9.3 2.42.4 4.86.3 7.3 0 .28.07.55.2.8 3.1 4.5 4.3 9.8 5.8 14.9 1.2 3.9 3.4 6 7.4 6.3.64.05 1.27.15 1.9.3a4.16 4.16 0 013.4 3.2c.7 2.1.3 2.6-1.8 2.6h-6.5a3.24 3.24 0 01-2.3-.8 11.71 11.71 0 00-3.4-2 7.26 7.26 0 01-3.4-2.6 28.59 28.59 0 00-4-4.5c-2.8-2.9-5.8-5.7-8.4-8.7a11.38 11.38 0 01-3.2-7.6c0-.9-.2-1.3-1.2-.9-.3.19-.65.3-1 .3-2.8 0-4.2 1.7-5.2 4.2-.9 2.1-2.1 4.1-3.2 6.2a10.4 10.4 0 00-1 4.2c0 2.4.6 3.2 2.8 4 1.4.5 2.7 1 3.4 2.4.8 1.6.6 2-1.1 2.1h-6.8a1.88 1.88 0 01-1.9-1.1l-1.8-3a6.05 6.05 0 01-.7-5.4c.43-1.74.47-3.55.1-5.3a8.42 8.42 0 011.7-7c.6-.7.6-1-.4-1.2a50.06 50.06 0 01-11.87-4.13.1.1 0 01-.03-.07c-3.2-1.2-3.8-1-4.7 2.3-.8 2.8-1.6 5.6-2.2 8.5-.7 3.2.1 6.2 1.1 9.2.4 1.2 1.6 1.1 2.5 1.4 2 .6 3.7 1.4 4.5 3.5.7 1.6.6 1.8-1.1 1.8-1.7 0-3.4-.1-5.2 0-1.52.03-3-.47-4.2-1.4-4.8-3.2-6.2-8.1-6.6-13.4-.2-3.3-2-5.9-4.1-8.4-.4-.5-.8-.7-1.4-.3a44.31 44.31 0 01-6.7 3 26.71 26.71 0 00-12.2 8.8 10.63 10.63 0 00-2.2 5.1c-.3 1.8.2 2.6 2 3.1s2.7 1.5 2.9 3.4c.1.8-.2 1.2-1 1.2h-8.1a1.65 1.65 0 01-1.3-.8 8.56 8.56 0 01-1.9-5.5c-.05-3.46.25-6.9.9-10.3a6.3 6.3 0 013.4-4.8c5.9-2.8 9-8.1 11.8-13.6.6-1.1.1-1.3-.9-1.2-2.8.39-5.45 1.5-7.7 3.2a70.61 70.61 0 00-8.3 7.1 16.67 16.67 0 01-10.3 4.9C3.1 52.5-.3 48.4 0 41.8c.07-2.25.92-4.4 2.4-6.1a4.25 4.25 0 014.5-1.5c1.5.4 1.9 1.2 1.3 2.7-.3.6-.7 1.1-1 1.7a7.5 7.5 0 00-1 2c-1.1 3 .4 5.1 3.5 5.4 3.3.3 6-1.1 8.5-3.1 3.01-2.41 5.7-5.2 8-8.3a20.8 20.8 0 0114.4-8.1c2.3-.3 4.3-1.3 6.5-1.9a41.51 41.51 0 0112.7-1.8 13 13 0 005.8-1.1c4.9-2 10-2 15.1-1 4 .8 8 1.8 11.9 2.8 2.32.43 4.7.36 7-.2a67.8 67.8 0 0113.4-2c2.96-.14 5.92.44 8.6 1.7 2 .9 2 .9 1.5 2.8z" fill="#000"/></g><defs><clipPath id="clip0"><path fill="#fff" transform="translate(0 20)" d="M0 0h134v56H0z"/></clipPath></defs></svg>
